X:416
T:Lady Glenorchy
R:Reel
C:Duncan MacKercher
B:The Athole Collection
M:C|
L:1/8
K:A
g|aefd c2Ae|cA A/A/A aeeg|aefd c2Ad|B=G G/G/G =gBBe:|
cAA=g fded|cAAe ce a2|cAA=g fded|B=GGA Bcde|cAA=g fded|
cAAe ce a2|ceae fdec|B=GGA Bcde||

